light/build/img/logo-2.svg

<svg width="64" height="50" viewBox="0 0 64 50" fill="" xmlns="http://www.w3.org/2000/svg">
    <path fill-rule="evenodd" clip-rule="evenodd" d="M32.623 38.7132L53.6077 14.8198L46.2764 7.4099L51.0879 1.63003L63.9263 14.4684L32.78 50L0 14.4684L14.431 0H48.8373L35.4942 15.8666L43.7939 16.2928L25.8748 28.9779L32.3127 19.7061L23.856 19.2799L32.78 7.56318H17.5714L10.4344 14.7002L32.623 38.7132Z" fill=""/>
</svg>

<svg width="64" height="50" xmlns="http://www.w3.org/2000/svg"><path fill-rule="evenodd" clip-rule="evenodd" d="M32.623 38.713 53.608 14.82l-7.332-7.41 4.812-5.78 12.838 12.838L32.78 50 0 14.468 14.431 0h34.406L35.494 15.867l8.3.426-17.92 12.685 6.439-9.272-8.457-.426L32.78 7.563H17.571L10.434 14.7l22.189 24.013Z"/></svg>
